packages/core/src/svgs/tokens/branded/MOCHI.svg

<svg width="24" height="24" viewBox="0 0 24 24" fill="none" xmlns="http://www.w3.org/2000/svg">
<path d="M12.0027 2C14.6549 2.00074 17.1982 3.05502 19.073 4.9309C20.9478 6.80678 22.0008 9.35061 22 12.0028C21.9992 14.6549 20.945 17.1982 19.0691 19.073C17.1932 20.9478 14.6494 22.0008 11.9972 22C9.34505 21.9992 6.80181 20.945 4.92696 19.0691C3.05213 17.1932 1.99926 14.6495 2 11.9972C2.00074 9.34507 3.05501 6.80182 4.9309 4.92698C6.80678 3.05213 9.35061 1.99927 12.0027 2Z" fill="#D6EAFD"/>
<path d="M18.0401 4.02719C20.1165 5.61043 21.491 7.94318 21.8698 10.5267C22.2486 13.1101 21.6016 15.7393 20.0672 17.8519C18.5327 19.9646 16.2327 21.3931 13.6587 21.832C11.0847 22.2708 8.44123 21.6853 6.2934 20.2004C4.21705 18.6172 2.84251 16.2845 2.46371 13.7011C2.08491 11.1175 2.73189 8.48838 4.26633 6.37571C5.80077 4.26305 8.10088 2.83456 10.6748 2.39569C13.2488 1.95681 15.8922 2.54237 18.0401 4.02719Z" fill="#95C2F1"/>
<path d="M16.9078 4.68264C18.3778 5.79042 19.4619 7.33264 20.0067 9.09082C20.5513 10.849 20.5292 12.734 19.943 14.4788C19.3569 16.2237 18.2367 17.7398 16.7409 18.8126C15.2453 19.8853 13.4499 20.4603 11.6093 20.4561C9.74311 20.4561 8.01586 19.8729 6.59958 18.8842C5.13002 17.7767 4.04606 16.2351 3.50118 14.4774C2.95631 12.7197 2.97812 10.8353 3.56353 9.09069C4.14893 7.34614 5.26828 5.82992 6.76308 4.75673C8.25789 3.68353 10.0524 3.10773 11.8925 3.11085C13.6838 3.11122 15.4319 3.65971 16.9022 4.68264H16.9078Z" fill="#5890D2"/>
<path d="M17.4071 5.1103C18.8767 6.21779 19.9607 7.7595 20.5056 9.51719C21.0504 11.2747 21.0286 13.1593 20.4433 14.9039C19.8579 16.6483 18.7385 18.1646 17.2437 19.2377C15.7489 20.311 13.9544 20.8868 12.1142 20.8837C10.248 20.8837 8.52075 20.3005 7.10448 19.3119C5.63454 18.2041 4.5504 16.6619 4.00566 14.9037C3.46092 13.1456 3.48318 11.2605 4.06929 9.51577C4.6554 7.77088 5.77565 6.2547 7.27136 5.18194C8.76706 4.10917 10.5624 3.53422 12.403 3.53851C14.2692 3.53851 15.9965 4.12168 17.4127 5.1103H17.4071Z" fill="#B4D3F1"/>
<path d="M17.1957 4.92701C18.6655 6.03479 19.7497 7.577 20.2945 9.33519C20.8392 11.0933 20.8169 12.9784 20.2309 14.7232C19.6447 16.4681 18.5244 17.9842 17.0288 19.057C15.5331 20.1297 13.7377 20.7047 11.8971 20.7003C10.0254 20.7003 8.30366 20.1172 6.88182 19.1286C5.41188 18.0209 4.32774 16.4786 3.78301 14.7204C3.23826 12.9623 3.26052 11.0772 3.84664 9.33241C4.43275 7.58759 5.553 6.07141 7.0487 4.99865C8.5444 3.92588 10.3398 3.35093 12.1804 3.35522C14.0521 3.35522 15.7738 3.93839 17.1957 4.92701Z" fill="url(#paint0_linear_364_7819)"/>
<path d="M5.33838 13.5912C5.33838 13.5912 7.21007 17.5179 12.1142 17.5179C17.024 17.5179 18.6569 13.4913 18.6569 13.4913L17.0463 10.1255C17.0463 10.1255 17.1962 9.42021 17.1962 8.52597C17.1962 7.63733 16.9185 5.88782 15.8854 5.88782C14.8468 5.88782 13.6693 7.55402 13.6693 7.55402C13.6693 7.55402 12.0032 6.99862 10.337 7.55402C10.337 7.55402 9.17619 5.88782 8.30422 5.88782C7.43224 5.88782 6.73243 7.25966 6.73243 8.73702C6.73243 10.2144 6.87128 10.2144 6.87128 10.2144L5.33838 13.5912ZM7.76547 9.55901C7.76547 9.55901 7.70438 7.11525 8.59858 7.11525C9.26506 7.11525 9.5817 7.97057 9.5817 7.97057C9.5817 7.97057 8.3542 8.65927 7.76547 9.55901ZM15.5911 6.50431C16.6186 6.50431 16.1298 8.94807 16.1298 8.94807C15.4689 8.13163 14.4247 7.62067 14.4247 7.62067C14.4247 7.62067 14.9467 6.49875 15.5911 6.49875V6.50431Z" fill="url(#paint1_linear_364_7819)"/>
<path d="M5.76048 12.6637C6.3947 12.4056 7.0814 12.3025 7.76345 12.3635C8.44549 12.4244 9.10314 12.6473 9.68162 13.0136C9.68162 13.0136 10.6813 11.9972 12.031 11.9972C12.6974 11.9972 13.4584 12.2749 14.2192 12.9747C14.2192 12.9747 16.1242 11.6752 18.3347 12.7971L18.668 13.4802C18.668 13.4802 17.024 17.5512 12.1254 17.5512C10.7404 17.57 9.37653 17.2108 8.1806 16.512C6.98468 15.8132 6.002 14.8015 5.33838 13.5857L5.76048 12.6637Z" fill="#F6F4DF"/>
<path d="M9.78143 10.8864C10.0925 10.8864 10.3369 11.2641 10.3369 11.7195C10.3369 12.186 10.0925 12.5526 9.78143 12.5526C9.48155 12.5526 9.22607 12.175 9.22607 11.7195C9.23163 11.2641 9.48155 10.8864 9.78143 10.8864ZM14.2247 10.8864C14.5357 10.8864 14.7801 11.2641 14.7801 11.7195C14.7801 12.186 14.5357 12.5526 14.2247 12.5526C13.9248 12.5526 13.6692 12.175 13.6692 11.7195C13.6692 11.2641 13.9137 10.8864 14.2247 10.8864Z" fill="#2B2A29"/>
<path d="M13.9466 9.22025C14.4075 9.22025 14.7797 9.47014 14.7797 9.77559C14.7797 10.0812 14.4075 10.331 13.9466 10.331C13.4912 10.331 13.1135 10.0812 13.1135 9.77559C13.1135 9.47014 13.4912 9.22025 13.9466 9.22025ZM10.1644 9.24247C10.6142 9.32023 10.9419 9.63123 10.8863 9.92009C10.8307 10.2144 10.4142 10.3922 9.95327 10.3089C9.50345 10.2311 9.17569 9.92009 9.23124 9.63123C9.28678 9.33688 9.70328 9.15915 10.1644 9.24247Z" fill="#F6F4DF"/>
<path d="M10.3364 13.2524L10.6919 12.686L10.8919 12.747V12.9691C10.8919 12.9691 11.1696 13.3746 11.9083 13.3746V13.1081C11.3861 13.0136 11.1196 12.3194 11.1196 12.3194C11.9582 11.6307 13.0635 12.2638 13.0635 12.2638C13.0635 12.2638 12.6914 12.997 12.1637 13.1081V13.3691C12.1637 13.3691 12.5192 13.4635 13.1135 13.0192V12.7637L13.3189 12.7582L13.6688 13.3246L13.5023 13.4079L13.3189 13.2247C13.3189 13.2247 12.8746 13.6634 12.0305 13.6634C11.1862 13.6634 10.653 13.1302 10.653 13.1302L10.4419 13.2969L10.3364 13.2524Z" fill="#2B2A29"/>
<defs>
<linearGradient id="paint0_linear_364_7819" x1="4.50874" y1="5.28536" x2="20.7857" y2="18.1374" gradientUnits="userSpaceOnUse">
<stop stop-color="#84B8EF"/>
<stop offset="0.73" stop-color="#0871DD"/>
</linearGradient>
<linearGradient id="paint1_linear_364_7819" x1="12.0004" y1="2" x2="12.0004" y2="22" gradientUnits="userSpaceOnUse">
<stop stop-color="#E5A507"/>
<stop offset="1" stop-color="#F4DA12"/>
</linearGradient>
</defs>
</svg>

<svg xmlns="http://www.w3.org/2000/svg" width="24" height="24" fill="none" viewBox="0 0 24 24">
    <path fill="#D6EAFD" d="M12.003 2a10 10 0 1 1-.006 20 10 10 0 0 1 .006-20"/>
    <path fill="#95C2F1" d="M18.04 4.027A9.997 9.997 0 0 1 6.293 20.2 9.997 9.997 0 0 1 18.04 4.027"/>
    <path fill="#5890D2" d="M16.908 4.683a8.77 8.77 0 0 1-5.299 15.773 8.7 8.7 0 0 1-5.01-1.572 8.77 8.77 0 0 1 5.294-15.773c1.79 0 3.539.549 5.01 1.572z"/>
    <path fill="#B4D3F1" d="M17.407 5.11a8.77 8.77 0 0 1-5.293 15.774 8.7 8.7 0 0 1-5.01-1.572 8.77 8.77 0 0 1 5.299-15.773 8.73 8.73 0 0 1 5.01 1.571z"/>
    <path fill="url(#MOCHI__a)" d="M17.196 4.927A8.77 8.77 0 0 1 11.897 20.7a8.74 8.74 0 0 1-5.015-1.571A8.77 8.77 0 0 1 12.18 3.355a8.74 8.74 0 0 1 5.016 1.572"/>
    <path fill="url(#MOCHI__b)" d="M5.338 13.591s1.872 3.927 6.776 3.927c4.91 0 6.543-4.027 6.543-4.027l-1.61-3.365s.15-.706.15-1.6c0-.889-.278-2.638-1.312-2.638-1.038 0-2.216 1.666-2.216 1.666s-1.666-.555-3.332 0c0 0-1.16-1.666-2.033-1.666-.872 0-1.572 1.372-1.572 2.849s.14 1.477.14 1.477zM7.765 9.56s-.06-2.444.834-2.444c.666 0 .983.856.983.856S8.354 8.66 7.765 9.56m7.826-3.055c1.028 0 .539 2.444.539 2.444-.661-.816-1.705-1.327-1.705-1.327S14.947 6.5 15.591 6.5z"/>
    <path fill="#F6F4DF" d="M5.76 12.664a4.3 4.3 0 0 1 3.922.35s1-1.017 2.349-1.017c.666 0 1.427.278 2.188.978 0 0 1.905-1.3 4.116-.178l.333.683s-1.644 4.071-6.543 4.071a7.61 7.61 0 0 1-6.787-3.965z"/>
    <path fill="#2B2A29" d="M9.781 10.886c.311 0 .556.378.556.834 0 .466-.245.833-.556.833-.3 0-.555-.378-.555-.834.006-.455.256-.833.555-.833m4.444 0c.31 0 .555.378.555.834 0 .466-.244.833-.555.833-.3 0-.556-.378-.556-.834s.245-.833.556-.833"/>
    <path fill="#F6F4DF" d="M13.947 9.22c.46 0 .833.25.833.556 0 .305-.372.555-.833.555-.456 0-.833-.25-.833-.555s.377-.556.833-.556m-3.783.022c.45.078.778.39.722.678-.055.294-.472.472-.933.389-.45-.078-.777-.389-.722-.678.056-.294.472-.472.933-.389"/>
    <path fill="#2B2A29" d="m10.336 13.252.356-.566.2.061v.222s.278.406 1.016.406v-.267c-.522-.094-.788-.789-.788-.789.838-.688 1.944-.055 1.944-.055s-.373.733-.9.844v.261s.355.095.95-.35v-.255l.205-.006.35.567-.167.083-.183-.183s-.444.438-1.289.438c-.844 0-1.377-.533-1.377-.533l-.211.167z"/>
    <defs>
        <linearGradient id="MOCHI__a" x1="4.509" x2="20.786" y1="5.285" y2="18.137" gradientUnits="userSpaceOnUse">
            <stop stop-color="#84B8EF"/>
            <stop offset=".73" stop-color="#0871DD"/>
        </linearGradient>
        <linearGradient id="MOCHI__b" x1="12" x2="12" y1="2" y2="22" gradientUnits="userSpaceOnUse">
            <stop stop-color="#E5A507"/>
            <stop offset="1" stop-color="#F4DA12"/>
        </linearGradient>
    </defs>
</svg>
